X:1
T:Loka Britas lt
R:Polska
O:Delsbo, Hlsingland
S:efter Erik Ljung
B:Svenska Ltar
N:Sv. L. H. 335
M:3/4
L:1/8
K:D
e|:eg (g{ae})f fc|e/f/e d2 c>d|ef/^g/ ac df|ea [AA,]3 e|
eg (g{ae})f fc|e/f/e d2 c>d|ef/^g/ a2 d2|[1c[dF] [dF]3 e:|[2 c[dF] [dF]3 A|]
|:A>G EE FG|Ac GB (B{cB})A|A>G EE FG|Ac GB (B{cB})A|A>G EA DF|ED CE A2|
A>G EE FG|Ac GB (B{cB})A|Ac de =f/e/f/g/||[1 ac d3 A:|[2 ac d3 z |]
